X: 0723
T: CAMP TOWN HORNPIPE
B: Oliver Ditson "The Boston Collection of Instrumental Music" 1910 p.72 #3
F: http://conquest.imslp.info/files/imglnks/usimg/8/8f/IMSLP175643-PMLP309456-bostoncollection00bost_bw.pdf
M: 2/4
L: 1/16
K: G
|: g3d B2d2 | c2e2B2d2 | gfgd B2d2 | e2f2 g4 :|\
|: gfga b2d'2 | c'2b2a2g2 | babg e2a2 | d2f2 g4 :|
|: g3dB2d2 | c2e2B2d2 | g3dB2d2 | e2f2 g4 :|\
|: gfgd BdBd | cece BdBd | gfgd BdBd | egfa g4 :|

%%sep 1 1 500
%%sep 1 1 500
